X:1
T:Le feu qui m'ard
T:Le feu qui m'ard
T:Jacob Buus
T:Source : Le Parangon des Chansons---IXième Livre---Lyon---J.Moderne---1541. Editor : André Vierendeels (10/12/14).
C:Jacob Buus
%%score [ 1 2 3 4 ]
L:1/8
Q:1/4=85
M:2/2
K:C
V:1 treble nm="Superius" snm="S"
V:2 treble nm="Altus" snm="A"
V:3 treble-8 nm="Tenor" snm="T"
V:4 bass nm="Bassus" snm="B"
V:1
 d4 e2 c2 | d4 z2 A2 | c4 B2 d2- | d2 c2 d2 B2- | B2 B2 A2 c2- | c2 B2 c2 A2- | A2 G2 A4- | %7
w: Le feu qui|m'ard ne|peult es- tre|_ des- teinct, ne|_ peult es- tre|_ des- * *|* * teinct|
 A4 z2 A2 | F2 D2 A4 | z2 A2 c3 B | GA Bc d3 c | AB c4 A2 | B4 A4- | A4 z4 | z2 A2 A2 G2 | %15
w: _ sans|ta pi- tié,|car ton _|na- * * * * *|* * tu- *|rel tainct|_|cau- se'à mes|
 A4 z2 B2 | c2 A2 B2 A2 | G3 F E2 A2- | A2 G2 A4- | A4 A2 AB | cd ed/e/ f2 d2- |"^#" d2 c2 d4 | %22
w: yeulx la|flam- me de mon|plain- * * *|* * dre,|_ la flam- me|de mon plain- * * * *|* * dre,|
 z2 d2 d4 | A4 c2 F2 | c6 c2 | B2 G2 B2 c2 | A4 G4 | z2 A2 B2 d2 | c4 B2 A2 | B4 z2 c2 | %30
w: dont ie|te pri- e|que tu|fas- * ses res-|train- dre|ces- te cou-|leur, _ _|_ ces-|
 d2 f2 ed cB | A4 z2 G2 | c2 c2 B2 A2- | A2 G2 A2 z A | B2 d2 c4 | B2 A2 B4 | z2 c2 d2 f2 | %37
w: te cou- leur, _ _ _|_ qui|vif à mort me|_ _ poingt, ces-|te cou- leur,|_ _ _|ces- te cou-|
 ed cB A4 | z2 G2 c2 c2 |"^#" B2 A4 G2 | A8 |] %41
w: leur, _ _ _ _|qui vif à|mort me _|poingt.|
V:2
 z4 A4 | B2 G2 A4 | z2 E2 G2 G2 | F2 A4 G2- | G2 E2 F2 E2 | F2 G2 E2 D2 | E2 E2 C2 A,2 | D2 F2 E4 | %8
w: Le|feu qui m'ard|ne peult es-|tre des _|_ _ _ _|teinct, ne peult es-|tre des- teinct sans|ta pi- tié,|
 z2 A2 F2 E2 | F3 E/D/ C2 CD | EF GF DE FG | A3 G/F/ E2 A,2 | E2 D4 CB, | C2 A,4 G,2 | A,4 z2 E2- | %15
w: sans ta pi-|tié, _ _ car ton _|na- * * * tu- * rel _|tainct, _ _ _ car|ton na- * *|* tu- rel|tainct cau-|
 E2 F2 D4 | A2 F2 G2 F2 | ED D4 C2 | D4 E4 | D2 DE FG A2- | AG/F/ E2 D2 D2 | A4 A2 F2 | G4 DC DE | %23
w: * se'à mes|yeulx la flam- me|de _ mon plain-|* dre,|la flam- * * * *|* * * me de mon|plain- dre, dont|ie te _ _ _|
 F2 F2 A4- | A2 E2 CD EF | G2 (3:2:2G4 F2 E2- | E2 D2 E4 | z4 z2 D2 | E2 G2 FG A2- | A2 G2 A4 | %30
w: _ pri- e|_ que tu _ _ _|fas- ses res- train-|* * dre|ces-|te cou- leur, _ _|_ _ _|
 z2 D2 E2 G2 | F2 C2 E2 E2 | CD EF G2 D2 | E4 C4 | z2 D2 E2 G2 | FG A4 G2 | A4 z2 D2 | %37
w: ces- te cou-|leur qui vif à|mort _ _ _ _ _|me poingt,|ces- te cou-|leur, _ _ _|_ ces-|
 E2 G2 F2 C2 | E2 E2 CD EF | G2 D2 E4 | C8 |] %41
w: te cou- leur, qui|vif à mort _ _ _|_ _ me|poingt.|
V:3
 z8 | z4 d4 | e2 c2 d4 | z2 e2 f2 e2 | d2 B2 c4 | d4 c2 d2 | B4 A4 | z2 d2 c2 A2 | d4 z2 A2 | %9
w: |Le|feu qui m'ard|ne peult es-|tre des- *||* teinct|sans ta pi-|tié, sans|
 c2 d2 e4 | z4 z2 d2 | (3:2:2f4 e2 cd ef | g3 f e4- | e4 e4 | c2 d2 B4 | z2 A2 A2 G2 | A4 z2 A2 | %17
w: ta pi- tié,|car|ton na- tu- * * *||* rel|tainct _ _|cau- se'à mes|yeulx la|
 B2 G2 A4 | z2 d2 d2 c2 | f3 e d4 | c2 g2 f2 g2 | e4 d4 | z2 d2 B4 | c4 A4 | z2 A2 e4- | %25
w: flam- * me,|la flam- me|de mon plain-|dre, de mon _|plain- dre,|dont ie|te prie|que tu|
 e2 e2 d2 c2- | c2 A2 B2 G2 | A2 c2 B4 | z2 c2 d2 f2 | e4 A2 z A | B2 d2 c4 | z2 A2 c2 B2 | %32
w: _ fas- ses res-|* train- * *|* * dre,|ces- te cou-|leur, _ ces-|te cou- leur|qui vif à|
 A2 A2 G2 A2 | B4 A2 c2 | B4 z2 c2 | d2 f2 e4 | A2 A2 B2 d2 | c4 z2 A2 | c2 B2 A2 A2 | G2 A2 B4 | %40
w: mort me poingt, à|mort me _|poingt, ces-|te cou- leur,|_ ces- te cou-|leur, qui|vif à mort, à|mort me _|
 A8 |] %41
w: poingt.|
V:4
 z8 | z8 | A,4 B,2 G,2 | A,4 z2 E,2 | G,2 G,2 F,2 A,2- | A,2 G,2 A,2 F,2 | E,4 z2 A,2 | %7
w: ||Le feu qui|m'ard ne|peult es- tre des-||teinct sans|
 F,2 D,2 A,4 | z4 z2 A,2 | F,2 D,2 A,4 | z2 G,2 _B,3 A, | F,G, A,3 B, C2 | G,4 A,4- | A,4 E,4 | %14
w: ta pi- tié,|sans|ta pi- tié,|car ton _|_ _ na- * *|tu- *|* rel|
 F,2 D,2 E,3 D, | C,2 D,2 B,,4 | A,,4 z4 | z4 z2 A,2 | B,2 B,2 A,4 | z2 D,2 D,E, F,G, | %20
w: tainct cau- se'à mes|yeulx la flam-|me,|cau-|se'à mes yeulx|la flam- * * *|
 A,B, C2 D2 B,2 | A,4 D,2 D,2 | G,4 G,4 | F,4 z2 D,2 | A,6 A,2 | G,2 E,2 G,2 A,2 | F,4 E,2 E,2 | %27
w: * * mme de mon|plain- dre, dont|ie te|prie que|tu fas-|ses res- train- *|* dre ces-|
 F,2 A,2 G,4 | z8 | z2 E,2 F,2 A,2 | G,2 z2 z2 C,2 | D,2 F,2 E,2 E,2 | A,,B,, C,D, E,2 F,2 | %33
w: te cou- leur,||ces- te cou-|leur, qui|vif à mort me|poingt, _ _ _ _ à|
 E,2 E,2 F,2 A,2 | G,4 z4 | z4 z2 E,2 | F,2 A,2 G,2 z2 | z2 C,2 D,2 F,2 | E,2 E,2 A,,B,, C,D, | %39
w: mort me _ _|poingt,|ces-|te cou- leur|qui vif à|mort me poingt, _ _ _|
 E,2 F,2 E,2 E,2 | A,,8 |] %41
w: _ à mort me|poingt.|

